assets/icons/informations/diversity_3.svg

<svg viewBox="0 0 24 24" xmlns="http://www.w3.org/2000/svg">
<path d="M1.75 20C1.53333 20 1.35417 19.9292 1.2125 19.7875C1.07083 19.6458 1 19.4667 1 19.25V16C1 15.5167 1.17083 15.1042 1.5125 14.7625C1.85417 14.4208 2.26667 14.25 2.75 14.25H6.275C6.55833 14.25 6.82917 14.3208 7.0875 14.4625C7.34583 14.6042 7.56667 14.8 7.75 15.05C8.23333 15.75 8.85 16.2917 9.6 16.675C10.35 17.0583 11.15 17.25 12 17.25C12.85 17.25 13.65 17.0583 14.4 16.675C15.15 16.2917 15.775 15.75 16.275 15.05C16.4583 14.8 16.675 14.6042 16.925 14.4625C17.175 14.3208 17.4417 14.25 17.725 14.25H21.25C21.7333 14.25 22.1458 14.4208 22.4875 14.7625C22.8292 15.1042 23 15.5167 23 16V19.25C23 19.4667 22.9292 19.6458 22.7875 19.7875C22.6458 19.9292 22.4667 20 22.25 20H17.25C17.0333 20 16.8542 19.9292 16.7125 19.7875C16.5708 19.6458 16.5 19.4667 16.5 19.25V17.025C15.9 17.575 15.2125 18 14.4375 18.3C13.6625 18.6 12.85 18.75 12 18.75C11.15 18.75 10.3417 18.6 9.575 18.3C8.80833 18 8.11667 17.575 7.5 17.025V19.25C7.5 19.4667 7.42917 19.6458 7.2875 19.7875C7.14583 19.9292 6.96667 20 6.75 20H1.75ZM12 15.75C11.4167 15.75 10.8542 15.6125 10.3125 15.3375C9.77083 15.0625 9.33333 14.6833 9 14.2C8.73333 13.8167 8.4125 13.5083 8.0375 13.275C7.6625 13.0417 7.25833 12.8833 6.825 12.8C7.30833 12.3 8.06667 11.9167 9.1 11.65C10.1333 11.3833 11.1 11.25 12 11.25C12.9 11.25 13.8708 11.3833 14.9125 11.65C15.9542 11.9167 16.7167 12.3 17.2 12.8C16.7667 12.8833 16.3625 13.0417 15.9875 13.275C15.6125 13.5083 15.2917 13.8167 15.025 14.2C14.6917 14.6833 14.2542 15.0625 13.7125 15.3375C13.1708 15.6125 12.6 15.75 12 15.75ZM4 12.5C3.23333 12.5 2.58333 12.2333 2.05 11.7C1.51667 11.1667 1.25 10.5167 1.25 9.75C1.25 8.98333 1.51667 8.33333 2.05 7.8C2.58333 7.26667 3.23333 7 4 7C4.76667 7 5.41667 7.26667 5.95 7.8C6.48333 8.33333 6.75 8.98333 6.75 9.75C6.75 10.5167 6.48333 11.1667 5.95 11.7C5.41667 12.2333 4.76667 12.5 4 12.5ZM20 12.5C19.2333 12.5 18.5833 12.2333 18.05 11.7C17.5167 11.1667 17.25 10.5167 17.25 9.75C17.25 8.98333 17.5167 8.33333 18.05 7.8C18.5833 7.26667 19.2333 7 20 7C20.7667 7 21.4167 7.26667 21.95 7.8C22.4833 8.33333 22.75 8.98333 22.75 9.75C22.75 10.5167 22.4833 11.1667 21.95 11.7C21.4167 12.2333 20.7667 12.5 20 12.5ZM12 9.5C11.2333 9.5 10.5833 9.23333 10.05 8.7C9.51667 8.16667 9.25 7.51667 9.25 6.75C9.25 5.98333 9.51667 5.33333 10.05 4.8C10.5833 4.26667 11.2333 4 12 4C12.7667 4 13.4167 4.26667 13.95 4.8C14.4833 5.33333 14.75 5.98333 14.75 6.75C14.75 7.51667 14.4833 8.16667 13.95 8.7C13.4167 9.23333 12.7667 9.5 12 9.5Z" fill="inherit"/>
</svg>

<svg viewBox="0 0 24 24" xmlns="http://www.w3.org/2000/svg"><path d="M1.8 20a.7.7 0 0 1-.8-.8V16c0-.5.2-.9.5-1.2.4-.4.8-.6 1.3-.6h3.5c.3 0 .5.1.8.3l.7.6a5.2 5.2 0 0 0 6.7 1.6c.7-.4 1.3-1 1.8-1.6l.6-.6c.3-.2.5-.3.8-.3h3.6c.4 0 .8.2 1.2.6.3.3.5.7.5 1.2v3.3a.7.7 0 0 1-.8.7h-5a.7.7 0 0 1-.7-.8V17a6.5 6.5 0 0 1-4.5 1.8A6.6 6.6 0 0 1 7.5 17v2.3a.7.7 0 0 1-.8.7h-5ZM12 15.7a3.7 3.7 0 0 1-3-1.5l-1-1-1.2-.4c.5-.5 1.3-.9 2.3-1.2l2.9-.3c.9 0 1.9 0 3 .3 1 .3 1.7.7 2.2 1.2-.4 0-.8.2-1.2.5-.4.2-.7.5-1 .9-.3.5-.7.9-1.3 1.1-.5.3-1.1.4-1.7.4Zm-8-3.2c-.8 0-1.4-.3-2-.8-.5-.5-.8-1.2-.8-2 0-.7.3-1.4.8-1.9.6-.5 1.2-.8 2-.8s1.4.3 2 .8c.5.5.8 1.2.8 2 0 .7-.3 1.4-.8 1.9-.6.5-1.2.8-2 .8Zm16 0c-.8 0-1.4-.3-2-.8-.5-.5-.8-1.2-.8-2 0-.7.3-1.4.9-1.9.5-.5 1.1-.8 1.9-.8.8 0 1.4.3 2 .8.5.5.8 1.2.8 2 0 .7-.3 1.4-.9 1.9-.5.5-1.1.8-1.9.8Zm-8-3c-.8 0-1.4-.3-2-.8-.5-.5-.8-1.2-.8-2 0-.7.3-1.4.9-1.9.5-.5 1.1-.8 1.9-.8.8 0 1.4.3 2 .8.5.5.8 1.2.8 2 0 .7-.3 1.4-.9 1.9-.5.5-1.1.8-1.9.8Z" fill="inherit"/></svg>
